X:1
T:Jimmy Ward's
R:jig
M:6/8
K:G
E|G3 GAB|AGE GED|G3 AGE|GED D2E|
G3 GAB|AGE GAB|c2A BGE|DED D2:|
B|c2A BAG|ABA AGE|cBA BGE|EDE GAB|
c2A BAG|ABA ABc|dcA AGE|GED D2:|
</abc>
